X: 4
T: The Swaggering Jig
R: slip jig
M: 9/8
L: 1/8
K: Dmix
|: A || BAG AGE EDE | BAG AGE c2d | BAG AGF EDE | ABA GFE D2 :||: A || GBd ded dBG | GBd efg d2c | GBd ded dcB | ABA GFE c2 :|


Tune 661	Setting 13695

